X:1
T:Title
%%score { ( 1 4 ) | ( 2 3 ) }
L:1/8
Q:1/4=120
M:6/4
K:Eb
V:1 treble nm="Grand Piano"
V:4 treble 
V:2 bass 
V:3 bass 
V:1
 G2 G2 G2 G2 _G2 =G2 | [GB]2 [Ac]2 [GB]2 G6 | E2 E2 E2 [DF]2 [CE]2 [DF]2 | G6 .B6 | %4
w: L.~E.~Jones * * * * *||||
 G2 G2 G2 G2 _G2 =G2 | [GB]2 [Ac]2 [GB]2 G6 | F2 B2 B2 =A2 G2 A2 | B6- [AB]6 | %8
w: ||||
 B2- [GB-]2 [GB-]2 [GB]2 [Ac]2 [GB]2 | [EGB]2 [FA]2 [FA]2 [FA]6 | %10
w: ||
 d2- [Ad-]2 [Ad-]2 [FAd]2 [FAc]2 [DAd]2 | [Ac]2 [GB]2 [GB]2 [GB]6 | %12
w: ||
 [Ge]2 [Ge]2 [Ge]2 [EG]2 A2 [EGB]2 |[M:15/8] [EAc]2 [EAc]-[EAc] [EAc]2 [CAe]3- [CAe]6 | %14
w: ||
[M:6/4] [EGB]2 [EGB]2 [EGB]2 [EGB]2 [B,FA]2 [A,DF]2 | [G,B,E]12 |] %16
w: ||
V:2
 [E,B,E]2 [E,B,E]2 [E,B,E]2 [E,B,E]2 [E,=A,E]2 [E,B,E]2 | [E,E]2 [E,E]2 [E,E]2 [E,B,E]6 | %2
 [E,G,B,]2 [E,G,B,]2 [E,G,B,]2 [B,,B,]2 [B,,B,]2 [B,,B,]2 | [B,E]6 z6 | %4
 [E,B,E]2 [E,B,E]2 [E,B,E]2 [E,B,E]2 [E,=A,E]2 [E,B,E]2 | [E,E]2 [E,E]2 [E,E]2 [E,B,E]6 | %6
 [F,B,D]2 [F,B,D]2 [F,B,D]2 [F,CE]2 [F,CE]2 [F,CE]2 | z6 .D6 | %8
 [E,E]2 [E,E]2 [E,E]2 [E,E]2 [E,E]2 [E,E]2 | B,,2 [B,,B,]2 [B,,B,]2 [B,,B,]6 | %10
 [B,,B,]2 [B,,B,]2 [B,,B,]2 B,,2 B,,2 B,,2 | [E,E]2 [E,E]2 [E,E]2 [E,E]6 | %12
 [E,B,]2 [E,B,]2 [E,B,]2 z2 F2 E,2 |[M:15/8] A,2 A,-A, A,2 A,,3- A,,6 | %14
[M:6/4] B,,2 B,,2 B,,2 B,,2 B,,2 B,,2 | E,12 |] %16
V:3
 x12 | x12 | x12 | E,6- [E,EG]6 | x12 | x12 | x12 | B,,12 | x12 | x12 | x12 | x12 | z6 .[E,B,]6 | %13
[M:15/8] x15 |[M:6/4] x12 | x12 |] %16
V:4
 x12 | x12 | x12 | x12 | x12 | x12 | x12 | [B,D]6 z6 | .G6 z6 | x12 | .A6 z6 | x12 | x12 | %13
[M:15/8] x15 |[M:6/4] x12 | x12 |] %16

